X: 33049
T: Pride Of Petravore, The
R: hornpipe
M: 4/4
K: Eminor
B,|:EB,EF G2 (3FGA|BcBA G<E E2|(3DDD DE FD (3EFG|A>BAG FE (3DEF|
EB,EF G2 (3FGA|BcBA G<E c2|(3BBB Bc BAGF|1 E2 B,2 C2 B,2:|2 E2 (3EEE E2 z2||
|:c2 c2 c2 zG|{e}dBGA B3 (B|B)F (3FFF FGAB|AGED (3EFG AB
cdef g>ggG|{e}dBGA B3 ^A|(3BBB Bc BAGF|1 E2 (3EEE E2 z2:|2 E2 B,2 C2 B,2||

